icons/Device/wifi-line.svg

<svg viewBox="0 0 24 24" xmlns="http://www.w3.org/2000/svg"><path d="M0.689453 6.99659C3.78027 4.49704 7.71526 3 11.9999 3C16.2845 3 20.2195 4.49704 23.3104 6.99659L22.0536 8.55252C19.3062 6.3307 15.8085 5 11.9999 5C8.19133 5 4.69356 6.3307 1.94617 8.55252L0.689453 6.99659ZM3.83124 10.8864C6.0635 9.08119 8.90544 8 11.9999 8C15.0944 8 17.9363 9.08119 20.1686 10.8864L18.9118 12.4424C17.023 10.9149 14.6183 10 11.9999 10C9.38151 10 6.97679 10.9149 5.08796 12.4424L3.83124 10.8864ZM6.97304 14.7763C8.34673 13.6653 10.0956 13 11.9999 13C13.9042 13 15.6531 13.6653 17.0268 14.7763L15.7701 16.3322C14.7398 15.499 13.4281 15 11.9999 15C10.5717 15 9.26002 15.499 8.22975 16.3322L6.97304 14.7763ZM10.1148 18.6661C10.63 18.2495 11.2858 18 11.9999 18C12.714 18 13.3698 18.2495 13.885 18.6661L11.9999 21L10.1148 18.6661Z"/></svg>

<svg xmlns="http://www.w3.org/2000/svg" viewBox="0 0 24 24">
    <g>
        <path fill="none" d="M0 0h24v24H0z"/>
        <path d="M.69 6.997A17.925 17.925 0 0 1 12 3c4.285 0 8.22 1.497 11.31 3.997l-1.256 1.556A15.933 15.933 0 0 0 12 5C8.191 5 4.694 6.33 1.946 8.553L.69 6.997zm3.141 3.89A12.946 12.946 0 0 1 12 8c3.094 0 5.936 1.081 8.169 2.886l-1.257 1.556A10.954 10.954 0 0 0 12 10c-2.618 0-5.023.915-6.912 2.442l-1.257-1.556zm3.142 3.89A7.967 7.967 0 0 1 12 13c1.904 0 3.653.665 5.027 1.776l-1.257 1.556A5.975 5.975 0 0 0 12 15c-1.428 0-2.74.499-3.77 1.332l-1.257-1.556zm3.142 3.89A2.987 2.987 0 0 1 12 18c.714 0 1.37.25 1.885.666L12 21l-1.885-2.334z"/>
    </g>
</svg>
